icon-svg/elec_blanket.svg

<svg xmlns="http://www.w3.org/2000/svg" viewBox="0 0 24 24"><path fill="#44739e" d="m21.138 4.727-.008-.973a.39.39 0 0 0-.393-.386h-.28l-.007-.981a.39.39 0 1 0-.78.006l.008.981h-.585l-.007-.972a.39.39 0 0 0-.78.007l.008.981h-.28a.39.39 0 0 0-.387.393l.008.973A1.74 1.74 0 0 0 19.02 6.44l.011 1.368a1.7 1.7 0 0 1-.6 1.306 3 3 0 0 0-.124-.125 3.9 3.9 0 0 0-1.07-.688h-.007a2.4 2.4 0 0 0-.964-.218l-3.777-.032-.587-.005h-1.2a16.4 16.4 0 0 0-4.163.212 3.4 3.4 0 0 0-2.284 2.453c-.047.17-.59 3.176-.768 4.229a4.4 4.4 0 0 1 2.415-1.467c.3-.058 4.171-.074 6.412-.074.618 0 6.051 0 6.333.076a3 3 0 0 1 1.282.683c-.127-.811-.545-3.219-.592-3.386a4.3 4.3 0 0 0-.436-1.029 2.48 2.48 0 0 0 .909-1.942l-.009-1.369a1.744 1.744 0 0 0 1.338-1.7Zm-2.912 7.757a1.64 1.64 0 0 1-1.331.45c-.812 0-1.723-.294-1.843-.786l-.721-2.953c-.038-.157-.337-.328-.7-.323a.7.7 0 0 0-.5.176.16.16 0 0 0-.044.122l.376 2.937a.47.47 0 0 1-.127.375 2.04 2.04 0 0 1-1.461.452 2.15 2.15 0 0 1-1.489-.449.48.48 0 0 1-.146-.364l.184-2.911a.16.16 0 0 0-.052-.119.73.73 0 0 0-.5-.161h-.026c-.366 0-.652.178-.679.329l-.529 2.9c-.089.487-.985.779-1.8.779a1.72 1.72 0 0 1-1.365-.446.41.41 0 0 1-.05-.391.3.3 0 0 1 .187-.164.7.7 0 0 1 .261-.048.5.5 0 0 1 .247.053.194.194 0 0 1 .107.242.07.07 0 0 0 .012.061.92.92 0 0 0 .672.189c.515 0 .886-.191.915-.322l.638-2.895c.1-.433.715-.781 1.411-.793v.116-.116a1.48 1.48 0 0 1 1.063.356.6.6 0 0 1 .187.435l-.076 2.916a.12.12 0 0 0 .043.083 1.16 1.16 0 0 0 .765.213 1.1 1.1 0 0 0 .746-.212c.039-.043.037-.071.036-.08l-.265-2.934a.58.58 0 0 1 .163-.448 1.44 1.44 0 0 1 1.039-.392 1.46 1.46 0 0 1 1.458.764l.828 2.958c.039.141.417.338.942.338a.86.86 0 0 0 .651-.189.07.07 0 0 0 .009-.075.2.2 0 0 1 .095-.246.5.5 0 0 1 .248-.057.7.7 0 0 1 .263.048.4.4 0 0 1 .14.087h.018l.032.074a.42.42 0 0 1-.032.421m-.025 4.679L6.487 17.2l-.17.079a1 1 0 0 0-.6.887.99.99 0 0 0 .554.9l.153.08 6.7.011c5.356.009 5.41.008 5.791-.177l.072-.035a2.41 2.41 0 0 0 1.334-1.54 2.7 2.7 0 0 0 0-1.319 2.42 2.42 0 0 0-1.32-1.529l-.081-.04c-.381-.188-.434-.189-5.663-.186h-1c-4.776 0-6.007.009-6.231.05a3.89 3.89 0 0 0-3.107 3.029 3.4 3.4 0 0 0-.052.779 2.7 2.7 0 0 0 .083.861 4.07 4.07 0 0 0 1.448 2.192 4.8 4.8 0 0 0 1.364.665l.332.093h13.628l.15-.08a1.13 1.13 0 0 0 .458-.489.8.8 0 0 0 .066-.388.65.65 0 0 0-.1-.439 1.04 1.04 0 0 0-.54-.485l-.162-.068-13.333-.035-.2-.086a1.8 1.8 0 0 1-.724-.492 1.794 1.794 0 0 1 .032-2.531 1.9 1.9 0 0 1 .975-.554c.117-.026 1.159-.041 5.986-.041h5.829l.137.136a.4.4 0 0 1 .024.576Z"/></svg>

<?xml version="1.0" encoding="UTF-8"?>
<svg width="24px" fill="#44739e" height="24px" viewBox="0 0 24 24" version="1.1" xmlns="http://www.w3.org/2000/svg" xmlns:xlink="http://www.w3.org/1999/xlink">
            <path d="M 21.137,4.725 21.129,3.752 A 0.389,0.389 0 0 0 20.736,3.366 h -0.28 L 20.449,2.385 a 0.39001154,0.39001154 0 1 0 -0.78,0.006 l 0.008,0.981 H 19.092 L 19.085,2.4 a 0.3900157,0.3900157 0 0 0 -0.78,0.007 l 0.008,0.981 h -0.28 a 0.391,0.391 0 0 0 -0.387,0.393 l 0.008,0.973 a 1.742,1.742 0 0 0 1.365,1.684 l 0.011,1.369 a 1.7,1.7 0 0 1 -0.6,1.306 C 18.389,9.069 18.347,9.027 18.306,8.988 A 3.92,3.92 0 0 0 17.236,8.3 H 17.229 A 2.365,2.365 0 0 0 16.265,8.082 L 12.487,8.05 11.9,8.045 H 10.7 A 16.385,16.385 0 0 0 6.537,8.257 3.4,3.4 0 0 0 4.252,10.71 c -0.047,0.17 -0.59,3.176 -0.768,4.229 v 0 A 4.4,4.4 0 0 1 5.9,13.472 c 0.3,-0.058 4.171,-0.074 6.412,-0.074 0.618,0 6.052,0 6.334,0.076 a 3.033,3.033 0 0 1 1.282,0.683 C 19.801,13.346 19.383,10.938 19.336,10.771 A 4.3,4.3 0 0 0 18.9,9.742 2.476,2.476 0 0 0 19.809,7.8 L 19.8,6.43 a 1.744,1.744 0 0 0 1.338,-1.7 z m -2.912,7.758 a 1.635,1.635 0 0 1 -1.331,0.45 c -0.812,0 -1.724,-0.294 -1.844,-0.786 L 14.329,9.194 C 14.291,9.037 13.992,8.866 13.629,8.871 a 0.712,0.712 0 0 0 -0.5,0.176 0.156,0.156 0 0 0 -0.044,0.122 l 0.376,2.937 a 0.471,0.471 0 0 1 -0.127,0.375 2.042,2.042 0 0 1 -1.461,0.452 2.149,2.149 0 0 1 -1.489,-0.449 0.483,0.483 0 0 1 -0.146,-0.364 L 10.422,9.209 A 0.161,0.161 0 0 0 10.37,9.09 0.726,0.726 0 0 0 9.87,8.929 H 9.844 c -0.366,0 -0.652,0.178 -0.679,0.329 l -0.529,2.9 c -0.089,0.487 -0.985,0.779 -1.8,0.779 A 1.721,1.721 0 0 1 5.471,12.491 0.407,0.407 0 0 1 5.421,12.1 a 0.3,0.3 0 0 1 0.187,-0.164 0.709,0.709 0 0 1 0.261,-0.048 0.522,0.522 0 0 1 0.247,0.053 0.194,0.194 0 0 1 0.107,0.242 v 0 a 0.065,0.065 0 0 0 0.012,0.061 0.918,0.918 0 0 0 0.672,0.189 v 0 c 0.515,0 0.886,-0.191 0.915,-0.322 L 8.46,9.216 C 8.56,8.783 9.175,8.435 9.871,8.423 V 8.539 8.423 a 1.48,1.48 0 0 1 1.063,0.356 0.591,0.591 0 0 1 0.187,0.435 l -0.076,2.916 a 0.122,0.122 0 0 0 0.043,0.083 1.157,1.157 0 0 0 0.765,0.213 v 0 a 1.1,1.1 0 0 0 0.746,-0.212 c 0.039,-0.043 0.037,-0.071 0.036,-0.08 L 12.37,9.2 A 0.584,0.584 0 0 1 12.533,8.752 1.438,1.438 0 0 1 13.572,8.36 1.462,1.462 0 0 1 15.03,9.124 l 0.829,2.958 c 0.039,0.141 0.417,0.338 0.942,0.338 v 0 a 0.863,0.863 0 0 0 0.651,-0.189 0.073,0.073 0 0 0 0.009,-0.075 0.2,0.2 0 0 1 0.095,-0.246 0.505,0.505 0 0 1 0.248,-0.057 v 0 a 0.736,0.736 0 0 1 0.263,0.048 0.424,0.424 0 0 1 0.14,0.087 h 0.018 l 0.032,0.074 a 0.424,0.424 0 0 1 -0.032,0.421 z M 18.2,17.163 6.485,17.2 6.315,17.279 a 1,1 0 0 0 -0.6,0.887 0.989,0.989 0 0 0 0.554,0.9 l 0.153,0.08 6.7,0.011 c 5.357,0.009 5.411,0.008 5.792,-0.177 l 0.072,-0.035 a 2.412,2.412 0 0 0 1.334,-1.54 2.67,2.67 0 0 0 0,-1.32 A 2.419,2.419 0 0 0 19,14.556 l -0.081,-0.04 C 18.538,14.328 18.485,14.327 13.255,14.33 h -1 c -4.776,0 -6.007,0.009 -6.231,0.05 a 3.894,3.894 0 0 0 -3.108,3.03 3.409,3.409 0 0 0 -0.052,0.779 2.662,2.662 0 0 0 0.083,0.861 4.071,4.071 0 0 0 1.448,2.192 4.808,4.808 0 0 0 1.365,0.665 L 6.092,22 h 13.629 l 0.15,-0.08 a 1.134,1.134 0 0 0 0.458,-0.489 0.824,0.824 0 0 0 0.066,-0.388 0.652,0.652 0 0 0 -0.1,-0.439 1.038,1.038 0 0 0 -0.54,-0.485 v 0 L 19.593,20.051 6.259,20.016 6.059,19.93 A 1.772,1.772 0 0 1 5.335,19.438 1.794,1.794 0 0 1 5.367,16.906 1.921,1.921 0 0 1 6.342,16.352 c 0.117,-0.026 1.159,-0.041 5.986,-0.041 h 5.83 l 0.137,0.136 a 0.4,0.4 0 0 1 0.024,0.576 z"/>

</svg>
